X:1
T:Title
%%score { ( 1 3 ) | ( 2 4 ) }
L:1/8
Q:1/4=100
M:4/4
K:G
V:1 treble nm="Grand Piano"
V:3 treble 
V:2 bass 
V:4 bass 
V:1
 [B,D]2 [B,E]>[B,F] [B,G]2 [DB]2 | B4 z4 | [G,CE]2 [CEA]2 [B,DG]2 [A,CF]2 |[M:3/4] [G,B,G]6 | %4
w: I.~Allan~Sankey * * * *||||
[M:1/4] [DB]2 |[M:4/4] [A,DA]3 [A,DF] [A,EA]2 [A,^CG]2 | [A,EG]3 F F2 F2 | E2 FG F2 [^CE]2 | %8
w: ||||
[M:3/4] D6 |[M:1/4] D2 |[M:4/4] [CFA]3 [B,=F^G] [D^FB]2 [CFA]2 | [CDA]2 [B,DG]4 [B,D]2 | %12
w: ||||
 [CFA]3 [B,=F^G] [C^FA]2 [Fd]2 |[M:3/4] [Gd]6 |[M:1/4] [A^d]2 |[M:4/4] [^Ge]3 [Bd] [Ac]2 [GB]2 | %16
w: ||||
 [Bd]2 [Ac]4 [EA]2 | G2 FG [DFB]2 [CFA]2 | [B,G]6 z2 |] %19
w: |||
V:2
 [G,,G,]2 [G,,G,]>[G,,G,] [G,,G,]2 [G,,G,]2 | D2 z2 z4 | C,2 A,,2 D,2 D,2 |[M:3/4] G,,6 | %4
[M:1/4] G,2 |[M:4/4] F,3 D, ^C,2 A,,2 | ^C,3 [D,A,D] [D,A,D]2 [F,A,D]2 | z2 .[F,^D]2 z4 | %8
[M:3/4] [D,F,]6 |[M:1/4] D,2 |[M:4/4] D,3 D, D,2 D,2 | G,2 G,4 G,2 | D,3 D, D,2 [D,C]2 | %13
[M:3/4] [G,B,]6 |[M:1/4] [F,B,]2 |[M:4/4] [E,B,]3 [E,E] [E,E]2 [E,E]2 | [A,E]2 [A,E]4 [C,C]2 | %17
 z2 ._B,2 z4 | G,,6 z2 |] %19
V:3
 x8 | z2 C2 [G,B,G]2 [G,B,D]2 | x8 |[M:3/4] x6 |[M:1/4] x2 |[M:4/4] x8 | x8 | x8 |[M:3/4] x6 | %9
[M:1/4] x2 |[M:4/4] x8 | x8 | x8 |[M:3/4] x6 |[M:1/4] x2 |[M:4/4] x8 | x8 | x8 | x8 |] %19
V:4
 x8 | [D,F,]3- [D,F,A] G,,2 G,,2 | x8 |[M:3/4] x6 |[M:1/4] x2 |[M:4/4] x8 | x8 | %7
 [G,B,D]2 B,-[E,B,E] [A,^C]2 [A,,G,]2 |[M:3/4] x6 |[M:1/4] x2 |[M:4/4] x8 | x8 | x8 |[M:3/4] x6 | %14
[M:1/4] x2 |[M:4/4] x8 | x8 | [D,B,D]2 [D,D]-[D,=B,D] D,2 D,2 | x8 |] %19

